X:20
T:Roast Beef of Old England. RHu.020
S:R.Hughes MS,1823,Whitchurch,Shrops.
A:Whitchurch, Shropshire
Z:Neil Brookes 2006
M:6/8
L:1/8
Q:3/8=100
R:Air
K:C
A|c>dc Bcd|ece d2G|c>dc BAG|AG^F”d.cr in MS”G2::!
G|AFA cBc|GEG A3|Gfe dcB|c3GFE|FGA GcB|c3c2:|

